X: 3277
T: The WINDMILL
%R: jig
B: James Kerr "Merry Melodies" v.3 p.30 #277
Z: 2016 John Chambers <jc:trillian.mit.edu>
M: 6/8
L: 1/8
K: G
|:\
Bcd uG2uF | E2G D2G | FAc edc | B3 A2c |\
Bcd G2F | E2G D2G | FAc edF | A3 G2c H:|
|:\
Bcd d2d | cde e2e | def f2f | gfe d2c |\
Bcd d2d | cde efg | fed Ad^c | d3- d2"_D.C."=c :|

%%sep 1 1 500
%%sep 1 1 500

